icons/sun-16.svg

<svg xmlns="http://www.w3.org/2000/svg" width="16" height="16" viewBox="0 0 16 16"><path d="M8 12a4 4 0 110-8 4 4 0 010 8zm0-1.5a2.5 2.5 0 100-5 2.5 2.5 0 000 5zm5.657-8.157a.75.75 0 010 1.061l-1.061 1.06a.749.749 0 01-1.275-.326.749.749 0 01.215-.734l1.06-1.06a.75.75 0 011.06 0zm-9.193 9.193a.75.75 0 010 1.06l-1.06 1.061a.75.75 0 11-1.061-1.06l1.06-1.061a.75.75 0 011.061 0zM8 0a.75.75 0 01.75.75v1.5a.75.75 0 01-1.5 0V.75A.75.75 0 018 0zM3 8a.75.75 0 01-.75.75H.75a.75.75 0 010-1.5h1.5A.75.75 0 013 8zm13 0a.75.75 0 01-.75.75h-1.5a.75.75 0 010-1.5h1.5A.75.75 0 0116 8zm-8 5a.75.75 0 01.75.75v1.5a.75.75 0 01-1.5 0v-1.5A.75.75 0 018 13zm3.536-1.464a.75.75 0 011.06 0l1.061 1.06a.75.75 0 01-1.06 1.061l-1.061-1.06a.75.75 0 010-1.061zM2.343 2.343a.75.75 0 011.061 0l1.06 1.061a.751.751 0 01-.018 1.042.751.751 0 01-1.042.018l-1.06-1.06a.75.75 0 010-1.06z"/></svg>

<svg xmlns="http://www.w3.org/2000/svg" width="16" height="16" viewBox="0 0 16 16">
  <defs/>
  <path d="M8,12 C5.791,12 4,10.209 4,8 C4,5.791 5.791,4 8,4 C10.209,4 12,5.791 12,8 C12,10.209 10.209,12 8,12 Z M8,10.5 C9.381,10.5 10.5,9.381 10.5,8 C10.5,6.619 9.381,5.5 8,5.5 C6.619,5.5 5.5,6.619 5.5,8 C5.5,9.381 6.619,10.5 8,10.5 Z M13.657,2.343 C13.95,2.636 13.95,3.111 13.657,3.404 L12.596,4.464 C12.409,4.665 12.127,4.747 11.862,4.679 C11.596,4.612 11.388,4.404 11.321,4.138 C11.253,3.873 11.335,3.591 11.536,3.404 L12.596,2.344 C12.889,2.052 13.363,2.052 13.656,2.344 Z M4.464,11.536 C4.756,11.829 4.756,12.303 4.464,12.596 L3.404,13.657 C3.216,13.852 2.937,13.93 2.675,13.862 C2.412,13.793 2.208,13.589 2.139,13.326 C2.07,13.064 2.148,12.785 2.343,12.597 L3.403,11.536 C3.696,11.243 4.171,11.243 4.464,11.536 Z M8,0 C8.414,0 8.75,0.336 8.75,0.75 L8.75,2.25 C8.75,2.664 8.414,3 8,3 C7.586,3 7.25,2.664 7.25,2.25 L7.25,0.75 C7.25,0.336 7.586,0 8,0 Z M3,8 C3,8.414 2.664,8.75 2.25,8.75 L0.75,8.75 C0.336,8.75 0,8.414 0,8 C0,7.586 0.336,7.25 0.75,7.25 L2.25,7.25 C2.664,7.25 3,7.586 3,8 Z M16,8 C16,8.414 15.664,8.75 15.25,8.75 L13.75,8.75 C13.336,8.75 13,8.414 13,8 C13,7.586 13.336,7.25 13.75,7.25 L15.25,7.25 C15.664,7.25 16,7.586 16,8 Z M8,13 C8.414,13 8.75,13.336 8.75,13.75 L8.75,15.25 C8.75,15.664 8.414,16 8,16 C7.586,16 7.25,15.664 7.25,15.25 L7.25,13.75 C7.25,13.336 7.586,13 8,13 Z M11.536,11.536 C11.829,11.244 12.303,11.244 12.596,11.536 L13.657,12.596 C13.941,12.89 13.938,13.358 13.648,13.647 C13.359,13.937 12.891,13.941 12.597,13.657 L11.536,12.597 C11.243,12.304 11.243,11.829 11.536,11.536 Z M2.343,2.343 C2.636,2.05 3.111,2.05 3.404,2.343 L4.464,3.404 C4.739,3.7 4.731,4.16 4.446,4.446 C4.16,4.731 3.7,4.739 3.404,4.464 L2.344,3.404 C2.052,3.111 2.052,2.637 2.344,2.344 Z"/>
</svg>
